Sources/FrostedUI/Resources/Icons.xcassets/mailOut32.imageset/mail-out-32.svg

<svg width="32" height="32" viewBox="0 0 32 32" fill="none" xmlns="http://www.w3.org/2000/svg" data-fui-icon="true">
  <path
    d="M23.5303 5C25.9988 5.00015 27.9999 7.00123 28 9.46973V14.25C28 14.6642 27.6642 15 27.25 15C26.8358 15 26.5 14.6642 26.5 14.25V11.8076L17.3213 17.9863C16.3397 18.647 15.1833 19 14 19C12.8167 19 11.6603 18.647 10.6787 17.9863L1.5 11.8076V22.5303C1.50015 24.1703 2.82966 25.4999 4.46973 25.5H23.25C23.6642 25.5 24 25.8358 24 26.25C24 26.6642 23.6642 27 23.25 27H4.46973C2.00123 26.9999 0.000147394 24.9988 0 22.5303V9.46973C0.000147136 7.00123 2.00123 5.00015 4.46973 5H23.5303ZM26.2051 16.9854C26.4895 16.6842 26.9635 16.6707 27.2646 16.9551L31.7646 21.2051C31.9147 21.3468 32 21.5437 32 21.75C32 21.9563 31.9147 22.1532 31.7646 22.2949L27.2646 26.5449C26.9635 26.8293 26.4895 26.8158 26.2051 26.5146C25.9207 26.2135 25.9342 25.7395 26.2354 25.4551L29.3643 22.5H19.75C19.3358 22.5 19 22.1642 19 21.75C19 21.3358 19.3358 21 19.75 21H29.3643L26.2354 18.0449C25.9342 17.7605 25.9207 17.2865 26.2051 16.9854ZM4.46973 6.5C2.82966 6.50015 1.50015 7.82966 1.5 9.46973V10L11.5166 16.7422C12.2506 17.2361 13.1153 17.5 14 17.5C14.8847 17.5 15.7494 17.2361 16.4834 16.7422L26.5 10V9.46973C26.4999 7.82966 25.1703 6.50015 23.5303 6.5H4.46973Z"
    fill="currentColor"
  />
</svg>

<svg xmlns="http://www.w3.org/2000/svg" width="32" height="32" fill="none" data-fui-icon="true" viewBox="0 0 32 32"><path fill="currentColor" d="M23.53 5A4.47 4.47 0 0 1 28 9.47v4.78a.75.75 0 0 1-1.5 0v-2.442l-9.179 6.178a5.95 5.95 0 0 1-6.642 0L1.5 11.808V22.53a2.97 2.97 0 0 0 2.97 2.97h18.78a.75.75 0 0 1 0 1.5H4.47A4.47 4.47 0 0 1 0 22.53V9.47A4.47 4.47 0 0 1 4.47 5zm2.675 11.985a.75.75 0 0 1 1.06-.03l4.5 4.25a.75.75 0 0 1 0 1.09l-4.5 4.25a.75.75 0 1 1-1.03-1.09l3.13-2.955H19.75a.75.75 0 0 1 0-1.5h9.614l-3.129-2.955a.75.75 0 0 1-.03-1.06M4.47 6.5A2.97 2.97 0 0 0 1.5 9.47V10l10.017 6.742a4.45 4.45 0 0 0 4.966 0L26.5 10v-.53a2.97 2.97 0 0 0-2.97-2.97z"/></svg>
